X:67
T:Trip to Sligo. JJo8.067
%%VWML:JohnsonVol8-2184-p34-0
F:http://www.vwml.org/record/JohnsonVol8/2184/p34
Z:Transcribed by Simon Furey and Lewis Jones
Z:vmp.Simon Wilson 2013 www.village-music-project.org.uk
Z:Dance added by John Chambers 2017
M:6/8
L:1/8
%Q:3/8=120
K:G
|:\
DGG DGG | DGG A2G | gdd ecc | dAc BAG |\
DGG DGG | DGG"^tr"A2G | gdd ecc | BGGG3 :|
|:\
Bdd dbb | dcB"^tr"c2B | Acc caa | cBAB2A |\
BGG EGG | DGG"^tr"A2G | gdd ecc | BGGG3 :|
W: First Cu. Right hands across round,
W:Left back again, cross over two Cu.
W:lead up. foot it, and cast off.
W:
T:Irish Hero. JJo8.068
B:J.Johnson Choice Collection Vol 8 1758
Z:vmp.Simon Wilson 2013 www.village-music-project.org.uk
Z:Dance added by John Chambers 2017
T:Blakney Forever. JJo8.068
M:6/8
L:1/8
%Q:3/8=120
K:Bb
|:\
B3 DEF | GAB cde | dfd cec | BdB AGF |\
B3 DEF | GAB cde | dcB AFA | B3 B,3 :|
|:\
f3 bfd | e2f gec | d3  fdB | A2B cAF |\
B3 DEF | GAB cde | dcB AFA | B3 B,3 :|
W: First Cu. cast off lead thro' the 3d
W:Cu. and cast up. cast up again to the
W:top and turn. cross over and turn.
W:and Right and Left.
W:
